X: 31039
T: Paddy Carter
R: hornpipe
M: 4/4
K: Dmajor
F>G|A>F A>d f>d A>F|G>F G>B e2 e>d|c>d e/f/g B2 c2|d/f/e d/c/B A2 F>G|
A>F A>d f>d A>F|G>F G>B e2 e>d|c>d e/f/g B2 c2|d2 d2 d2 f>g|
a>f b>a f>d A>d|f/e/f g>f B2 B/c/d|c>f a>f b>a g>e|d/c/d e/d/B A2 f>g|
a>f b>a f>d A>d|f/e/f g>f B2 B/c/d|c>f a>f b>a g/f/e|d2 d2 d2 d>e|
f/e/d A2 f/e/d A2|g/f/e B2 g/f/e B>d|c>f a>f b>a g>e|d/c/d e/d/B A2 g2|
f/e/d A2 f/e/d A2|g/f/e B2 g/f/e B>d|c>f a>f b>a g/f/e|d2 d2 d2|

